X: 12330
T: Faithful Friend, The
R: hornpipe
M: 4/4
K: Dmajor
|:AG|FDDC DEFG|AG AB =c2 (3AB^c|dcde fded|cA (3gfe dcAG|
FDDC DEFG|AG AB =c2 (3AB^c|dcde fded|cABc d2:|
|:g/|fddA dfaf|(3gag ed (3dcd eg|fddA dfaf|ge ce d3 e|
fddA dfaf|(3gag ed cd eg|fgaf g2 bg|(3fga eg fdd2:|
|:e/|f2f2de (3edc|d3 A =c>AG>A|FDDC DEFG|AB=cA d3 e|
fd ec dcAB|=c3A GFEF|Dddc defa|gece d3:|

